Catalina-dark/actions/16/x-clementine-artist.svg

<?xml version="1.0" encoding="UTF-8" standalone="no"?>
<svg
   xmlns:dc="http://purl.org/dc/elements/1.1/"
   xmlns:cc="http://creativecommons.org/ns#"
   xmlns:rdf="http://www.w3.org/1999/02/22-rdf-syntax-ns#"
   xmlns:svg="http://www.w3.org/2000/svg"
   xmlns="http://www.w3.org/2000/svg"
   xmlns:sodipodi="http://sodipodi.sourceforge.net/DTD/sodipodi-0.dtd"
   xmlns:inkscape="http://www.inkscape.org/namespaces/inkscape"
   width="16"
   height="16"
   viewBox="0 0 16 16"
   version="1.1"
   id="svg7"
   sodipodi:docname="x-clementine-artist.svg"
   inkscape:version="0.92.4 5da689c313, 2019-01-14">
  <metadata
     id="metadata11">
    <rdf:RDF>
      <cc:Work
         rdf:about="">
        <dc:format>image/svg+xml</dc:format>
        <dc:type
           rdf:resource="http://purl.org/dc/dcmitype/StillImage" />
      </cc:Work>
    </rdf:RDF>
  </metadata>
  <sodipodi:namedview
     pagecolor="#ffffff"
     bordercolor="#666666"
     borderopacity="1"
     objecttolerance="10"
     gridtolerance="10"
     guidetolerance="10"
     inkscape:pageopacity="0"
     inkscape:pageshadow="2"
     inkscape:window-width="640"
     inkscape:window-height="480"
     id="namedview9"
     showgrid="false"
     inkscape:zoom="14.75"
     inkscape:cx="6.8135593"
     inkscape:cy="8"
     inkscape:window-x="0"
     inkscape:window-y="26"
     inkscape:window-maximized="0"
     inkscape:current-layer="svg7" />
  <defs
     id="defs3">
    <style
       id="current-color-scheme"
       type="text/css">
   .ColorScheme-Text { color:#5c616c; } .ColorScheme-Highlight { color:#5294e2; }
  </style>
  </defs>
  <path
     style="fill:#f1f6f8;fill-opacity:0.8509804"
     class="ColorScheme-Text"
     d="M 7.9941406 2 C 6.1241406 2 4.6002219 3.5344719 4.5449219 5.4511719 C 4.4989919 5.4626419 4.4533762 5.4810563 4.4101562 5.5039062 C 3.9801062 5.7309462 3.8698125 6.4401031 4.1640625 7.0957031 C 4.4007725 7.6231531 4.821585 7.9495631 5.203125 7.9394531 C 5.490345 9.6922531 6.6335406 11 7.9941406 11 C 7.9982406 11 8.0017294 11.00002 8.0058594 11 C 9.3664594 11 10.509675 9.6923531 10.796875 7.9394531 C 11.178415 7.9495431 11.597254 7.6231531 11.833984 7.0957031 C 12.128224 6.4400631 12.019884 5.7309063 11.589844 5.5039062 C 11.546564 5.4810563 11.501068 5.4626419 11.455078 5.4511719 C 11.399758 3.5344719 9.8758594 2 8.0058594 2 C 8.0017594 1.99998 7.9982706 2 7.9941406 2 z M 10.394531 11 C 10.105641 11.70052 9.1205125 12.226562 7.9453125 12.226562 C 6.7755125 12.226562 5.7996594 11.707439 5.5058594 11.011719 C 3.0367594 11.269869 1.2376844 11.901218 1.0214844 12.648438 C 1.0184844 12.655538 1.0234844 12.664745 1.0214844 12.671875 C 1.0144844 12.698765 1.0127656 12.7227 1.0097656 12.75 C 1.0087656 12.76233 1 12.770573 1 12.783203 C 0.99991 12.787303 1 12.788969 1 12.792969 L 1 14.642578 C 1 14.840118 1.1557094 15 1.3496094 15 L 14.650391 15 C 14.844291 15 15 14.840108 15 14.642578 L 15 12.792969 C 15 12.784769 15.00035 12.779634 15 12.771484 C 14.998 12.728184 14.979197 12.691027 14.966797 12.648438 C 14.745797 11.892437 12.908531 11.252 10.394531 11 z"
     id="path5" />
</svg>

<svg width="16" height="16" version="1.1" viewBox="0 0 16 16" xmlns="http://www.w3.org/2000/svg">
<defs>
<style id="current-color-scheme" type="text/css">.ColorScheme-Text { color:#5c616c; } .ColorScheme-Highlight { color:#5294e2; }</style>
</defs>
<path class="ColorScheme-Text" d="m7.9941 2c-1.87 0-3.3939 1.5345-3.4492 3.4512-0.04593 0.01147-0.091546 0.029884-0.13477 0.052734-0.43005 0.22704-0.54034 0.9362-0.24609 1.5918 0.23671 0.52745 0.65752 0.85386 1.0391 0.84375 0.28722 1.7528 1.4304 3.0605 2.791 3.0605 0.0041 0 0.0075888 2e-5 0.011719 0 1.3606 0 2.5038-1.3076 2.791-3.0605 0.38154 0.01009 0.80038-0.3163 1.0371-0.84375 0.29424-0.65564 0.1859-1.3648-0.24414-1.5918-0.04328-0.02285-0.088776-0.041264-0.13477-0.052734-0.05532-1.9167-1.5792-3.4512-3.4492-3.4512-0.0041-2e-5 -0.0075888 0-0.011719 0zm2.4004 9c-0.28889 0.70052-1.274 1.2266-2.4492 1.2266-1.1698 0-2.1457-0.51912-2.4395-1.2148-2.4691 0.25815-4.2682 0.8895-4.4844 1.6367-3e-3 0.0071 2e-3 0.016307 0 0.023437-7e-3 0.02689-0.0087188 0.050825-0.011719 0.078125-1e-3 0.01233-0.0097656 0.020573-0.0097656 0.033203-9e-5 0.0041 0 0.005766 0 0.009766v1.8496c0 0.19754 0.15571 0.35742 0.34961 0.35742h13.301c0.1939 0 0.34961-0.15989 0.34961-0.35742v-1.8496c0-0.0082 3.5e-4 -0.013335 0-0.021485-2e-3 -0.0433-0.020803-0.080457-0.033203-0.12305-0.221-0.756-2.0583-1.3964-4.5723-1.6484z" fill="#dedede" fill-opacity=".85098"/>
</svg>
